X: 4
T: Leather Away The Wattle-O
R: polka
M: 2/4
L: 1/8
K: Dmaj
|:f/e/|dA FA|d>d df|ed cd|ef gf/g/|af ge|dc AF|GB A/B/A/G/|FD D:||:e|f>f ff|z gg2|f>f f a|gf ef/g/|af ge|dc AF|GB A/B/A/G/|FD D:|


Tune 2286	Setting 15648

